assets/features/channel/southeast-asia/paynow.svg

<svg width="80" height="80" viewBox="0 0 80 80" fill="none" xmlns="http://www.w3.org/2000/svg">
<rect width="80" height="80" rx="8" fill="#8F1B7C"/>
<path d="M12 23.2603C12 23.1198 12.039 23.0105 12.1093 22.9247C12.1796 22.8388 12.2967 22.7998 12.4372 22.7998H18.8474C19.3081 22.7998 19.7453 22.8622 20.1513 22.9871C20.5573 23.112 20.9321 23.2915 21.2756 23.5101C21.6191 23.7364 21.9236 24.0018 22.1969 24.314C22.4702 24.6262 22.7044 24.9618 22.8918 25.3208C23.0792 25.6798 23.2275 26.0623 23.329 26.4603C23.4305 26.8584 23.4774 27.2643 23.4774 27.6701C23.4774 28.2711 23.3681 28.8565 23.1495 29.434C22.9308 30.0116 22.6263 30.5189 22.2203 30.9716C21.8221 31.4165 21.3381 31.7833 20.7759 32.0565C20.2137 32.3375 19.5891 32.478 18.9099 32.4858H15.8726V37.2624C15.8726 37.5512 15.7165 37.6917 15.412 37.6917H12.445C12.3123 37.6917 12.203 37.6605 12.1249 37.5902C12.0468 37.52 12.0078 37.4107 12.0078 37.2624V23.2603H12ZM19.5579 27.6467C19.5579 27.4438 19.5267 27.2486 19.4564 27.0457C19.3861 26.8428 19.2846 26.6633 19.1519 26.5072C19.0192 26.3511 18.8552 26.2184 18.6678 26.1247C18.4804 26.0233 18.2618 25.9764 18.0198 25.9764H15.8961V29.3248H18.0198C18.2618 29.3248 18.4804 29.2779 18.6756 29.1765C18.8708 29.0828 19.0348 28.9579 19.1597 28.8018C19.2924 28.6457 19.3939 28.474 19.4642 28.2711C19.5345 28.0682 19.5657 27.8652 19.5657 27.6467H19.5579Z" fill="white"/>
<path d="M27.9629 23.1901C27.9629 23.151 27.9941 23.1042 28.0253 23.0574C28.0644 23.0105 28.1034 22.9637 28.1581 22.9247C28.2127 22.8857 28.2674 22.8544 28.3299 22.831C28.3923 22.8076 28.447 22.7998 28.5016 22.7998H31.0704C31.1875 22.7998 31.2812 22.831 31.3593 22.9013C31.4373 22.9715 31.4998 23.034 31.5388 23.0886L31.7887 23.6584L37.0589 37.239C37.1136 37.3717 37.1058 37.481 37.0277 37.5668C36.9574 37.6527 36.8247 37.6917 36.6451 37.6917H33.764C33.6079 37.6917 33.4908 37.6605 33.4049 37.6058C33.319 37.5512 33.2565 37.4576 33.2097 37.3171C33.077 36.9736 32.9442 36.638 32.8193 36.3024C32.6944 35.9668 32.5616 35.6234 32.4367 35.2878H27.1118C26.9869 35.6312 26.8542 35.9668 26.7293 36.3024C26.5965 36.638 26.4716 36.9814 26.3467 37.3171C26.2608 37.5668 26.089 37.6917 25.8314 37.6917H22.8722C22.7473 37.6917 22.638 37.6605 22.5521 37.5902C22.4662 37.52 22.4506 37.4263 22.5053 37.2858L27.9629 23.1901ZM29.7899 27.4828C29.665 27.8262 29.5322 28.193 29.4073 28.5833C29.2746 28.9813 29.1497 29.3794 29.0247 29.7775C28.8998 30.1755 28.7671 30.5736 28.6422 30.9638C28.5094 31.3541 28.3845 31.7209 28.2596 32.0643H31.3436L29.8055 27.4828H29.7899Z" fill="white"/>
<path d="M41.6643 28.2945L44.0847 23.112C44.1237 23.034 44.155 22.9715 44.1862 22.9403C44.2096 22.9013 44.2408 22.8779 44.2643 22.8622C44.2877 22.8466 44.3189 22.8388 44.3502 22.831C44.3814 22.831 44.4126 22.8232 44.4517 22.8076H48.3165C48.3633 22.8076 48.4024 22.8232 48.4336 22.8544C48.4648 22.8857 48.4805 22.9169 48.4805 22.9637C48.4805 23.034 48.4336 23.1198 48.3399 23.2135L43.585 31.6272V37.2312C43.585 37.5434 43.4288 37.6995 43.1243 37.6995H40.1184C39.9856 37.6995 39.8841 37.6605 39.806 37.5746C39.728 37.4888 39.6967 37.3795 39.6967 37.2312V31.6038L34.9496 23.2057C34.8637 23.1198 34.8169 23.034 34.8169 22.9559C34.8169 22.9169 34.8325 22.8779 34.8559 22.8466C34.8794 22.8154 34.9184 22.7998 34.9652 22.7998H38.8301C38.8769 22.8154 38.916 22.8232 38.9394 22.8232C38.9628 22.8232 38.994 22.8388 39.0175 22.8544C39.0409 22.87 39.0721 22.9013 39.0955 22.9325C39.119 22.9715 39.158 23.0261 39.2048 23.1042L41.6487 28.2867L41.6643 28.2945Z" fill="white"/>
<path d="M12 40.0772C12 39.9601 12.039 39.8509 12.1093 39.765C12.1796 39.6792 12.2967 39.6323 12.4372 39.6323H15.7165C15.8102 39.6323 15.9039 39.6557 16.0054 39.7026C16.1069 39.7494 16.1928 39.8274 16.263 39.9445C17.1141 41.3182 17.9573 42.6685 18.7927 43.9953C19.6282 45.33 20.4714 46.6802 21.3303 48.0461V40.0148C21.3537 39.8977 21.4083 39.804 21.4942 39.7338C21.5723 39.6635 21.666 39.6323 21.7753 39.6323H24.6329C24.7735 39.6323 24.8906 39.6713 24.9843 39.7494C25.078 39.8274 25.1248 39.9367 25.1248 40.0772V54.1418C25.1248 54.2745 25.0858 54.3759 25.0077 54.4384C24.9296 54.5008 24.8203 54.532 24.6798 54.532H21.4786C21.3927 54.532 21.3146 54.5008 21.2444 54.4384C21.1741 54.3759 21.1038 54.2979 21.0336 54.1964C20.1435 52.7291 19.2612 51.2695 18.3945 49.8334C17.5279 48.3973 16.6456 46.9378 15.7477 45.4704V54.0871C15.7477 54.2354 15.7165 54.3447 15.6462 54.415C15.5759 54.4852 15.4588 54.5242 15.2871 54.5242H12.4372C12.2811 54.5242 12.1718 54.4852 12.1015 54.3993C12.0312 54.3135 12 54.212 12 54.0949V40.0772Z" fill="white"/>
<path d="M52.3221 54.6875C52.2518 54.5704 52.1893 54.4534 52.1347 54.3363C52.0722 54.2192 52.0176 54.0943 51.9707 53.9773C51.1041 51.706 50.2452 49.4504 49.3942 47.2181C48.5353 44.9859 47.6765 42.7303 46.8176 40.459C46.8176 40.4278 46.8176 40.3966 46.802 40.3654C46.7942 40.342 46.7864 40.3107 46.7864 40.2873C46.7864 40.1 46.9113 40.0063 47.1612 40.0063H50.3936C50.6512 40.0063 50.823 40.1312 50.9167 40.3888L53.9851 49.5284L56.8271 40.3888C56.9208 40.1312 57.1082 40.0063 57.3815 40.0063H60.6451C60.8013 40.0063 60.9106 40.0376 60.9731 40.0922C61.0355 40.1468 61.0667 40.2249 61.0667 40.3185C61.0667 40.3732 61.0667 40.4122 61.0589 40.4278V40.459L59.271 45.5713L60.6139 49.5128L63.8619 40.3888C63.9556 40.1312 64.143 40.0063 64.4163 40.0063H67.5784C67.7346 40.0063 67.8439 40.0376 67.9063 40.0922C67.9688 40.1468 68 40.2249 68 40.3185C68 40.3732 68 40.4122 67.9922 40.4278V40.459C67.5394 41.6376 67.0709 42.8083 66.5946 43.9791C66.1184 45.1498 65.6421 46.3206 65.1658 47.4913C64.6895 48.6621 64.2133 49.8328 63.7448 51.0036C63.2763 52.1743 62.8157 53.3451 62.3628 54.5158C62.3394 54.586 62.2769 54.6719 62.1833 54.7578C62.0896 54.8514 61.9724 54.8904 61.8397 54.8904H59.3803C59.2319 54.8904 59.1226 54.8592 59.0445 54.8046C58.9665 54.75 58.9118 54.6719 58.8806 54.5782L57.2956 50.4026C57.0692 51.0114 56.8428 51.6045 56.6241 52.1899C56.4055 52.7753 56.1791 53.3685 55.9605 53.9773C55.9292 54.0709 55.8902 54.1724 55.8434 54.2738C55.7965 54.3753 55.7497 54.4768 55.6872 54.5626C55.6247 54.6563 55.5623 54.7265 55.4842 54.789C55.4061 54.8514 55.3202 54.8826 55.2187 54.8826H52.7593C52.5485 54.8826 52.408 54.8124 52.3377 54.6719L52.3221 54.6875Z" fill="white"/>
<path d="M44.9469 40.3104C44.5056 39.738 43.9985 39.2218 43.454 38.7526C43.3413 38.6493 43.1911 38.6024 43.0408 38.6024C42.8343 38.6024 42.6465 38.7056 42.5244 38.8652L36.7313 46.814L33.8301 43.2666C33.7174 43.1258 33.5484 43.0414 33.37 43.0414C33.1822 43.0414 33.0132 43.1352 32.8911 43.2948L31.6612 44.984C31.464 45.2562 31.4734 45.6503 31.6893 45.9037L36.4027 51.6659C36.5154 51.8067 36.6844 51.8911 36.8628 51.8911C37.0506 51.8911 37.2196 51.7973 37.3416 51.6377L43.3976 43.3229C45.0314 46.5043 44.1863 50.4459 41.3226 52.6794C39.9894 53.7211 38.3932 54.2655 36.7031 54.2655C34.3652 54.2655 32.1963 53.205 30.7598 51.3656C29.5298 49.7796 28.9852 47.8088 29.2294 45.8192C29.4735 43.8203 30.4875 42.0466 32.0649 40.8078C33.3982 39.7661 34.9943 39.2218 36.6844 39.2218C37.7172 39.2218 38.7124 39.4283 39.6514 39.8224C39.9518 39.9538 40.3462 39.8412 40.5339 39.5784L41.5104 38.2364C41.6231 38.0863 41.6606 37.8986 41.6137 37.7203C41.5668 37.5513 41.4541 37.4012 41.2851 37.3261C39.8485 36.6222 38.2993 36.2656 36.675 36.2656C34.3277 36.2656 32.1025 37.0352 30.2434 38.4804C25.6896 42.0278 24.8728 48.6253 28.4219 53.1768C30.4218 55.7388 33.4357 57.2122 36.6938 57.2122C39.0411 57.2122 41.2663 56.4521 43.1254 54.9975C45.3318 53.2801 46.7308 50.8025 47.0782 48.0246C47.4256 45.2468 46.6651 42.5064 44.9469 40.301V40.3104Z" fill="white"/>
</svg>

<svg xmlns="http://www.w3.org/2000/svg" width="80" height="80" fill="none" viewBox="0 0 80 80"><rect width="80" height="80" fill="#8f1b7c" rx="8"/><path fill="#fff" d="M12 23.26q.002-.209.11-.335c.07-.086.187-.125.327-.125h6.41q.693 0 1.304.187c.406.125.781.305 1.125.523q.513.338.92.804a5.15 5.15 0 0 1 1.133 2.146 4.93 4.93 0 0 1-.18 2.974 4.8 4.8 0 0 1-.929 1.538 4.7 4.7 0 0 1-1.444 1.084 4.2 4.2 0 0 1-1.866.43h-3.037v4.776c0 .29-.156.43-.461.43h-2.967a.46.46 0 0 1-.32-.102q-.117-.105-.117-.328V23.26zm7.558 4.387a1.8 1.8 0 0 0-.102-.601 1.7 1.7 0 0 0-.304-.539 1.6 1.6 0 0 0-.484-.382 1.35 1.35 0 0 0-.648-.149h-2.124v3.349h2.124a1.4 1.4 0 0 0 .656-.148q.294-.142.484-.375c.132-.156.234-.328.304-.53.07-.204.102-.407.102-.625zm8.405-4.457c0-.039.031-.086.062-.133.04-.046.078-.093.133-.132a.7.7 0 0 1 .172-.094.5.5 0 0 1 .172-.031h2.568c.117 0 .211.031.29.101.077.07.14.133.179.188l.25.57 5.27 13.58q.084.2-.031.328c-.07.086-.203.125-.383.125h-2.881a.66.66 0 0 1-.36-.086c-.085-.055-.148-.148-.194-.289-.133-.343-.266-.679-.39-1.015-.126-.335-.258-.679-.383-1.014h-5.325c-.125.343-.258.679-.383 1.014-.133.336-.257.68-.382 1.015q-.129.375-.516.375h-2.959a.5.5 0 0 1-.32-.102c-.086-.07-.101-.164-.047-.304zm1.827 4.293c-.125.343-.258.71-.383 1.1q-.196.597-.382 1.195c-.125.398-.258.796-.383 1.186q-.198.585-.382 1.1h3.084l-1.539-4.581zm11.874.812 2.42-5.183a.8.8 0 0 1 .102-.172.25.25 0 0 1 .078-.078.3.3 0 0 1 .086-.031.3.3 0 0 0 .102-.023h3.864q.07 0 .118.046a.14.14 0 0 1 .047.11q0 .107-.141.25l-4.755 8.413v5.604q-.002.468-.46.468h-3.007a.4.4 0 0 1-.312-.124c-.078-.086-.11-.196-.11-.344v-5.627l-4.746-8.398c-.086-.086-.133-.172-.133-.25 0-.04.016-.078.039-.11q.036-.046.11-.046h3.864a.4.4 0 0 0 .11.023c.023 0 .054.016.078.031a.4.4 0 0 1 .078.079q.037.056.109.171l2.444 5.183zM12 40.077a.5.5 0 0 1 .11-.312c.07-.086.187-.133.327-.133h3.28a.7.7 0 0 1 .288.07.6.6 0 0 1 .258.242 660 660 0 0 0 2.53 4.051q1.25 2.002 2.537 4.051v-8.031a.47.47 0 0 1 .164-.281.4.4 0 0 1 .281-.102h2.858a.53.53 0 0 1 .351.117q.14.117.14.328v14.065q0 .201-.116.296a.5.5 0 0 1-.328.094h-3.201a.34.34 0 0 1-.235-.094q-.105-.091-.21-.242c-.89-1.467-1.773-2.926-2.64-4.363a825 825 0 0 0-2.646-4.363v8.617c0 .148-.031.258-.102.328s-.187.11-.359.11h-2.85q-.232.002-.335-.126a.46.46 0 0 1-.102-.304zm40.322 14.611a4 4 0 0 1-.187-.352 4 4 0 0 1-.164-.359c-.867-2.271-1.726-4.527-2.577-6.759a1252 1252 0 0 1-2.576-6.759c0-.031 0-.062-.016-.094a.3.3 0 0 1-.016-.078q0-.28.375-.28h3.233c.257 0 .429.124.523.382l3.068 9.14 2.842-9.14q.143-.385.555-.383h3.263c.156 0 .266.032.328.086a.3.3 0 0 1 .094.227c0 .054 0 .093-.008.109v.031l-1.788 5.112 1.343 3.942 3.248-9.124c.094-.258.281-.383.554-.383h3.162c.157 0 .266.032.328.086a.3.3 0 0 1 .094.227c0 .054 0 .093-.008.109v.031q-.681 1.767-1.397 3.52l-1.43 3.512a662 662 0 0 0-1.42 3.513 327 327 0 0 0-1.382 3.512.64.64 0 0 1-.18.242.47.47 0 0 1-.343.132h-2.46a.57.57 0 0 1-.336-.085.44.44 0 0 1-.163-.227l-1.585-4.175-.672 1.787c-.218.585-.445 1.178-.663 1.787q-.047.142-.118.297c-.047.101-.093.203-.156.289a1 1 0 0 1-.203.226.4.4 0 0 1-.265.094h-2.46q-.316 0-.421-.211z"/><path fill="#fff" d="M44.947 40.31a10.7 10.7 0 0 0-1.493-1.557.6.6 0 0 0-.413-.15.65.65 0 0 0-.517.262l-5.793 7.949-2.9-3.547a.6.6 0 0 0-.461-.226.6.6 0 0 0-.479.254l-1.23 1.689a.76.76 0 0 0 .028.92l4.714 5.762c.112.14.281.225.46.225a.6.6 0 0 0 .479-.253l6.056-8.315a7.52 7.52 0 0 1-2.075 9.356 7.43 7.43 0 0 1-4.62 1.587 7.5 7.5 0 0 1-5.943-2.9 7.5 7.5 0 0 1-1.53-5.547 7.5 7.5 0 0 1 2.835-5.011 7.43 7.43 0 0 1 4.62-1.586 7.6 7.6 0 0 1 2.966.6c.3.132.695.02.883-.244l.976-1.342a.6.6 0 0 0-.225-.91 10.4 10.4 0 0 0-4.61-1.06c-2.347 0-4.572.77-6.432 2.214-4.553 3.548-5.37 10.145-1.821 14.697 2 2.562 5.014 4.035 8.272 4.035 2.347 0 4.572-.76 6.431-2.215a10.4 10.4 0 0 0 3.953-6.972 10.4 10.4 0 0 0-2.131-7.724z"/></svg>
